X: 57
T:Off to California
N: page 19
N: hexatonic
R:Hornpipe
C:Lesley Dolman
S:Nottingham Music Database
M:4/4
L:1/8
K:G
(3DEF|"G"GFGB "D"AGED|"G"GBdg "C"e2 (3def|"G"gfgd "Em"edBG|"D"ABAG"Em"E2 (3DEF| "G"GFGB "D"AGED|
"G"GBdg "C"e2"D" (3def|"G"gfgd "Em"edBG|"D" (3ABA EF"G"G2:: d|"Em"gfeg "D"fedf|"Em"edef edB2|"Em" (3def gd "C"edBG|
"D"ABAG "Em"E2 (3DEF|"Em"GFGB "D"AGED|"G"GBdg "C"e2 (3def|"G"gfgd "Em"edBG|"D7" (3ABA EF"G"G3:|
